X: 24702
T: MacNeils Of Ugadale, The
R: jig
M: 6/8
K: Amajor
e|c>dB A>AA|c<ee e>cA|f>ec e>fa|a>ec B2 e|
c>dB A>AA|c<ee e>cA|c<dB e>fc|A>AA A2:|
e|a>gf e2 a|e>fe e>cA|a>gf e2 a|a>ec B2 e|
[1 a>gf e2 a|e>fe e>cA|c<dB e>fc|A>AA A2:|
[2 c>dB A>AA|c<ee e>cA|c<dB e>fc|A>AA A2||
e|c3 A3|c<ee e>cA|f3 d2 a|a>ec B2 e|
c3 A3|c<ee e>cA|c<dB e>fc|A>AA A2:|
e|f2 a d2 a|e>fe e>cA|f2 a d2 a|a>ec B2 e|
[1 f2 a d2 a|e>fe e>cA|c<dB e>fc|A>AA A2:|
[2 c>dB e>fc|a>gf e2 d|c<dB e>fc|A>AA A2||

